Sources/FrostedUI/Resources/Icons.xcassets/flagFilled32.imageset/flag-filled-32.svg

<svg width="32" height="32" viewBox="0 0 32 32" fill="none" xmlns="http://www.w3.org/2000/svg" data-fui-icon="true">
  <path
    d="M11.8564 2.91699C13.441 2.91699 14.9919 3.70173 16.332 4.36523C17.7595 5.07198 18.9776 5.65808 20.1426 5.6582C21.2968 5.65819 22.4808 5.3924 23.4434 5.09277C24.8001 4.67037 26.416 5.61877 26.416 7.18359V19.2832C26.4158 20.07 25.966 20.8254 25.1865 21.1377C24.1465 21.5545 22.1578 22.2314 20.1426 22.2314C18.558 22.2313 17.0071 21.4467 15.667 20.7832C14.2395 20.0765 13.0215 19.4912 11.8564 19.4912C10.5945 19.4913 9.29913 19.8083 8.29883 20.1387C7.80357 20.3023 7.39025 20.4659 7.10254 20.5879C7.09625 20.5905 7.08916 20.5931 7.08301 20.5957V28.334C7.08267 28.7479 6.74701 29.084 6.33301 29.084C5.91917 29.0838 5.58335 28.7478 5.58301 28.334V5.86621C5.58301 5.0794 6.03317 4.32326 6.8125 4.01074C7.85218 3.59411 9.84114 2.91716 11.8564 2.91699Z"
    fill="currentColor"
  />
</svg>

<svg xmlns="http://www.w3.org/2000/svg" width="32" height="32" fill="none" data-fui-icon="true" viewBox="0 0 32 32"><path fill="currentColor" d="M11.856 2.917c1.585 0 3.136.785 4.476 1.448 1.427.707 2.646 1.293 3.81 1.293 1.155 0 2.339-.266 3.301-.565 1.357-.423 2.973.526 2.973 2.09v12.1c0 .787-.45 1.542-1.23 1.855-1.04.416-3.028 1.093-5.043 1.093-1.585 0-3.136-.784-4.476-1.448-1.428-.707-2.645-1.292-3.81-1.292-1.262 0-2.558.317-3.558.648-.495.163-.909.327-1.196.449l-.02.008v7.738a.75.75 0 0 1-1.5 0V5.866c0-.787.45-1.543 1.23-1.855 1.04-.417 3.028-1.094 5.043-1.094"/></svg>
